X:103
T:A Fig For A Kiss
R: slip jig
M: 9/8
L: 1/8
K: Edor
|: G2B E2B BAG | F2A D2A AGF | G2B E2B BAG |[1 BdB AGF E2F :|[2 BdB AGF E2f |]
| g2e g2e edB | fef dfa gfe | g2e g2e edB | ABd efd e2f |
| g2e g2e edB | fef dfa gfe | gfe agf gfe | dcB AGF E2F |

%%newpage
%%scale .7
%%staffsep 35

